!!!OTL: Die Gefangene (114d), S. 271
!!!id: T0278
**kern
*clefG2
*k[]
*C:
{8g
=1
4.g
8e
=2
8cc
8b
8a
8g
=3
8d
8a
4a}
=4
{4.g
8cc
=5
16g
16g
8g
8f
8g
=6
4e}
8r
=7
{8g
=8
4.g
8e
=9
8cc
8b
8a
8g
=10
8d
8a
4a}
=11
{4.g
8cc
=12
8g
8g
8f
8g
=13
4e}
8r
==
*-
!!!minrhy: 16
!!!meters: 2/4 ]  ZZ[4
!!!cut: Die Gefangene (114d), S. 271
!!!reg: Luxemburg
!!!trd: Singendes Volk, Esch-Alzette 1937 posth.
!!!rhy1: X_  X__.X_  X_X_X_X_  X_X_X__
!!!rhy2: X__.X_  XXX_X_X_  X__0_
!!!key: T0278  16  C 2/4 ]  ZZ[4
!!!mod: HEPTATONIK IONISCH]  AMBITUS[7b
!!!kad: 6363
!!!akz: 5+12_553_5+12_553_
!!!fot: 'a__b__a__bv_
!!!for: 'a__b__a__aw_
!!!fok: '~a_\__~a_\__
!! PHRAS[GEMISCHTTAKTIG]
!!!fkt: Liebeslieder
!!!bem: Esch-Alzette, fff Franziska M&uuml;ller-M&uuml;ller
!! THILL, Mathias:
!! PR[11] 2K[9] 2G[31] 3K[6] 3G[3] 4A[0] 4Ü[0] 5A[0] 6K[0] 6G[0]
!! 7K[0] 7G[0] 8A[0] MEHR[0] SI[49] ABS[35] SR[40] SP[9]
!! ST[14] 2k[6] 2g[23] 3k[3] 3g[3] 4d[6] 4ü[0] 5d[0] 6k[0] 6g[0]
!! 7k[0] 7g[0] 8d[0] mehr[0] si[40] dm[+9] sr[29] sp[11]
!! 1F[58] 2F[37] 3F[0] 4F[0] LF[0] 2P[5] 3P[0] 4P[0] TRI[0] DF[3] AB[38]
!! TF[0] U3K[0] U3[0] U4[0] U4Ü[0] U5[0] U6K[0] U6[0] U7K[0] U7[0]
!! N1[11] N2K[0] N2[22] N3K[0] N3[25] N4[19] N4Ü[0] N5[19] N6K[0] N6[3]
!!!n7k: 0] N7[0] O1[0] O2K[0] O2[0] O3K[0] O3[0] HÖ[0
!!!RNB: symbol: &uuml;  = u umlaut (UTF-8: Ã¼)
